apps/16/game/game.svg

<?xml version="1.0" encoding="UTF-8" standalone="no"?>
<svg
   xmlns:dc="http://purl.org/dc/elements/1.1/"
   xmlns:cc="http://creativecommons.org/ns#"
   xmlns:rdf="http://www.w3.org/1999/02/22-rdf-syntax-ns#"
   xmlns:svg="http://www.w3.org/2000/svg"
   xmlns="http://www.w3.org/2000/svg"
   xmlns:sodipodi="http://sodipodi.sourceforge.net/DTD/sodipodi-0.dtd"
   xmlns:inkscape="http://www.inkscape.org/namespaces/inkscape"
   height="16"
   width="16"
   version="1.1"
   id="svg6"
   sodipodi:docname="applications-games-symbolic.svg"
   inkscape:version="0.92.2 (unknown)">
  <metadata
     id="metadata12">
    <rdf:RDF>
      <cc:Work
         rdf:about="">
        <dc:format>image/svg+xml</dc:format>
        <dc:type
           rdf:resource="http://purl.org/dc/dcmitype/StillImage" />
      </cc:Work>
    </rdf:RDF>
  </metadata>
  <defs
     id="defs10" />
  <sodipodi:namedview
     pagecolor="#808080"
     bordercolor="#808080666"
     borderopacity="1"
     objecttolerance="10"
     gridtolerance="10"
     guidetolerance="10"
     inkscape:pageopacity="0"
     inkscape:pageshadow="2"
     inkscape:window-width="785"
     inkscape:window-height="480"
     id="namedview8"
     showgrid="false"
     inkscape:zoom="14.75"
     inkscape:cx="8"
     inkscape:cy="8"
     inkscape:window-x="0"
     inkscape:window-y="34"
     inkscape:window-maximized="0"
     inkscape:current-layer="svg6" />
  <g
     transform="translate(-891.998 -443.948)"
     id="g4"
     style="fill:#808080;fill-opacity:1">
    <path
       d="M895.783 445.967a1.74 1.74 0 0 0-.806.219c-1.037.546-1.992 2.336-2.51 4.656-.443 1.971-.605 4.666-.342 5.75.23.932.627 1.344 1.333 1.344 1.046-.018 2.36-1.182 3.193-2.75.603-.868 2-1.263 3.347-1.219 1.347-.047 2.745.351 3.348 1.219.833 1.568 2.147 2.732 3.192 2.75.706 0 1.104-.412 1.333-1.344.264-1.084.102-3.779-.34-5.75-.52-2.32-1.474-4.11-2.511-4.656-.57-.305-1.04-.296-1.457 0-.527.376-1.626.78-3.565.781-1.938.002-3.037-.405-3.564-.781a1.062 1.062 0 0 0-.651-.219zm.248 3h.992v1h.992v1h-.992v1h-.992v-1h-.992v-1h.992zm7.439 0c.274 0 .496.224.496.5s-.222.5-.496.5a.498.498 0 0 1-.496-.5c0-.276.222-.5.496-.5zm-.992 1c.274 0 .496.224.496.5s-.222.5-.496.5a.498.498 0 0 1-.496-.5c0-.276.222-.5.496-.5zm1.984 0c.274 0 .496.224.496.5s-.222.5-.496.5a.498.498 0 0 1-.496-.5c0-.276.222-.5.496-.5zm-.992 1c.274 0 .496.224.496.5s-.222.5-.496.5a.498.498 0 0 1-.496-.5c0-.276.222-.5.496-.5z"
       fill="#808080"
       id="path2"
       style="fill:#808080;fill-opacity:1" />
  </g>
</svg>

<svg xmlns="http://www.w3.org/2000/svg" width="16" height="16" version="1.1">
 <g style="fill:#808080" transform="translate(-892,-443.95)">
  <path style="fill:#808080" d="M 895.78,445.97 A 1.74,1.74 0 0 0 894.98,446.19 C 893.94,446.73 892.99,448.52 892.47,450.84 892.02,452.81 891.86,455.51 892.12,456.59 892.36,457.52 892.75,457.94 893.46,457.94 894.5,457.92 895.82,456.75 896.65,455.19 897.25,454.32 898.65,453.92 900,453.97 901.34,453.92 902.74,454.32 903.35,455.19 904.18,456.75 905.49,457.92 906.54,457.94 907.24,457.94 907.64,457.52 907.87,456.59 908.13,455.51 907.97,452.81 907.53,450.84 907.01,448.52 906.06,446.73 905.02,446.19 904.45,445.88 903.98,445.89 903.56,446.19 903.04,446.56 901.94,446.97 900,446.97 898.06,446.97 896.96,446.56 896.43,446.19 A 1.062,1.062 0 0 0 895.78,445.97 Z M 896.03,448.97 H 897.02 V 449.97 H 898.01 V 450.97 H 897.02 V 451.97 H 896.03 V 450.97 H 895.04 V 449.97 H 896.03 Z M 903.47,448.97 C 903.74,448.97 903.97,449.19 903.97,449.47 903.97,449.74 903.74,449.97 903.47,449.97 A 0.498,0.498 0 0 1 902.97,449.47 C 902.97,449.19 903.2,448.97 903.47,448.97 Z M 902.48,449.97 C 902.75,449.97 902.97,450.19 902.97,450.47 902.97,450.74 902.75,450.97 902.48,450.97 A 0.498,0.498 0 0 1 901.98,450.47 C 901.98,450.19 902.2,449.97 902.48,449.97 Z M 904.46,449.97 C 904.74,449.97 904.96,450.19 904.96,450.47 904.96,450.74 904.74,450.97 904.46,450.97 A 0.498,0.498 0 0 1 903.97,450.47 C 903.97,450.19 904.19,449.97 904.46,449.97 Z M 903.47,450.97 C 903.74,450.97 903.97,451.19 903.97,451.47 903.97,451.74 903.74,451.97 903.47,451.97 A 0.498,0.498 0 0 1 902.97,451.47 C 902.97,451.19 903.2,450.97 903.47,450.97 Z"/>
 </g>
</svg>
